Sources/FrostedUI/Resources/Icons.xcassets/refund16.imageset/refund-16.svg

<svg width="16" height="16" viewBox="0 0 16 16" fill="none" xmlns="http://www.w3.org/2000/svg" data-fui-icon="true">
  <path
    d="M8.06152 0.75C5.11155 0.750129 3.25944 2.24567 2.25 3.90625V3C2.25 2.58579 1.91421 2.25 1.5 2.25C1.08579 2.25 0.75 2.58579 0.75 3V5.875C0.75 6.69665 1.41193 7.375 2.24316 7.375H3.67383C4.08804 7.375 4.42383 7.03921 4.42383 6.625C4.42383 6.21079 4.08804 5.875 3.67383 5.875H2.98535C3.50749 4.21101 5.04433 2.25017 8.06152 2.25C11.565 2.25 13.75 4.86854 13.75 8C13.75 11.1315 11.565 13.75 8.06152 13.75C5.75195 13.7499 3.88716 12.4856 2.98437 10.8818C2.78122 10.521 2.3238 10.3937 1.96289 10.5967C1.60194 10.7999 1.47357 11.2572 1.67676 11.6182C2.83629 13.6778 5.19211 15.2499 8.06152 15.25C12.4819 15.25 15.25 11.8685 15.25 8C15.25 4.13146 12.4819 0.75 8.06152 0.75ZM8 2.96973C7.58579 2.96973 7.25 3.30551 7.25 3.71973V4.33398C6.01183 4.61237 5.25 5.5567 5.25 6.49512C5.25004 6.88579 5.34247 7.24275 5.53613 7.55176C5.7271 7.85643 5.98744 8.06919 6.25293 8.2207C6.75049 8.50464 7.37928 8.62985 7.84473 8.72852C8.37898 8.84177 8.75054 8.92832 9.00293 9.07227C9.11215 9.13459 9.16457 9.19013 9.19238 9.23438C9.2174 9.27429 9.25 9.3479 9.25 9.49512C9.24994 9.52685 9.23729 9.62281 9.0752 9.7373C8.90506 9.85744 8.57079 9.98926 8.00488 9.98926C7.84849 9.98924 7.55257 9.94607 7.23535 9.8418C6.91167 9.73536 6.66196 9.59647 6.53027 9.46484C6.23738 9.17195 5.76262 9.17195 5.46973 9.46484C5.17696 9.75775 5.17687 10.2325 5.46973 10.5254C5.83806 10.8937 6.33919 11.1261 6.7666 11.2666C6.92662 11.3192 7.09043 11.3598 7.25 11.3945V12C7.25 12.4142 7.58579 12.75 8 12.75C8.41421 12.75 8.75 12.4142 8.75 12L8.75 11.4229C9.8962 11.2182 10.7499 10.5353 10.75 9.49512C10.75 9.10449 10.6574 8.74747 10.4639 8.43848C10.273 8.13388 10.0125 7.92104 9.74707 7.76953C9.24951 7.48559 8.62072 7.3594 8.15527 7.26074C7.62122 7.14753 7.24944 7.06184 6.99707 6.91797C6.88759 6.85549 6.83538 6.79918 6.80762 6.75488C6.78262 6.71498 6.75004 6.64213 6.75 6.49512C6.75 6.36739 6.98627 5.75003 8.00488 5.75C8.54085 5.75 9.05497 5.78205 9.3291 6.33008C9.51426 6.7004 9.96457 6.85088 10.335 6.66602C10.7054 6.48077 10.8561 6.02966 10.6709 5.65918C10.1904 4.69843 9.37682 4.39318 8.75 4.2959V3.71973C8.75 3.30551 8.41421 2.96973 8 2.96973Z"
    fill="currentColor"
  />
</svg>

<svg xmlns="http://www.w3.org/2000/svg" width="16" height="16" fill="none" data-fui-icon="true" viewBox="0 0 16 16"><path fill="currentColor" d="M8.062.75c-2.95 0-4.803 1.496-5.812 3.156V3a.75.75 0 0 0-1.5 0v2.875c0 .822.662 1.5 1.493 1.5h1.43a.75.75 0 0 0 0-1.5h-.688c.522-1.664 2.06-3.625 5.077-3.625 3.503 0 5.688 2.619 5.688 5.75 0 3.132-2.185 5.75-5.688 5.75-2.31 0-4.175-1.264-5.078-2.868a.75.75 0 0 0-1.307.736c1.16 2.06 3.515 3.632 6.385 3.632 4.42 0 7.188-3.382 7.188-7.25 0-3.869-2.768-7.25-7.188-7.25M8 2.97a.75.75 0 0 0-.75.75v.614c-1.238.278-2 1.223-2 2.161 0 .39.092.748.286 1.057.191.304.451.517.717.669.497.284 1.126.409 1.592.508.534.113.906.2 1.158.343a.5.5 0 0 1 .19.162c.024.04.057.114.057.261 0 .032-.013.128-.175.242-.17.12-.504.252-1.07.252a2.8 2.8 0 0 1-.77-.147c-.323-.107-.573-.246-.705-.377a.75.75 0 1 0-1.06 1.06c.368.369.87.601 1.297.742q.242.077.483.128V12a.75.75 0 0 0 1.5 0v-.577c1.146-.205 2-.888 2-1.928 0-.39-.093-.748-.286-1.057a2 2 0 0 0-.717-.668c-.497-.284-1.126-.41-1.592-.51-.534-.112-.906-.198-1.158-.342a.5.5 0 0 1-.19-.163.47.47 0 0 1-.057-.26c0-.128.236-.745 1.255-.745.536 0 1.05.032 1.324.58a.75.75 0 1 0 1.342-.67c-.48-.962-1.294-1.267-1.921-1.364V3.72A.75.75 0 0 0 8 2.97"/></svg>
